X:550
T:72nd's Farewell To Aberdeen 
C:Joe Buchanan's Scottish Tome - Page 095.2
I:095 2
Z:Carl Allison
R:Reel
L:1/8
M:4/4
K:D
(cB) | "D"A2 d2 d2 "A0"ef | "D"gfed "A0"f4 | "Em"g2 B2 B2 (cd) | "A7"efed "A7"dcBA |
"D"A2 d2 d2 "A0"ef | "D"gfed "A0"f4 | "Em"g2 B2 "A7"cdec | "D"d4 d2 :|
((3efg) | "D"a2 A2 "A0"A2 =c2 | "G"B2 G2 "D"A4 | "D"A2 d2 "A0"dcde | "Em"f2 e2 e2 "A7"(fg) |
"D"a2 A2 "A07"A2 =c2 | "G"B2 "D"G2 A4 | "D"A2 d2 "A7"fedc | "D"d4 d2 :|

